src/img/circles.svg

<svg width="184" height="166" viewBox="0 0 184 166" fill="none" xmlns="http://www.w3.org/2000/svg">
<g opacity="0.05" clip-path="url(#clip0)">
<path d="M54.6362 48.7197H58.6537C59.5714 44.2098 63.569 40.8133 68.3589 40.8133C70.3759 40.8133 72.2542 41.4162 73.8189 42.4506L76.6612 39.6142C74.3471 37.8846 71.4718 36.8601 68.3589 36.8601C61.3738 36.8601 55.6002 42.0158 54.6362 48.7197Z" fill="#49A9B4"/>
<path d="M52.0846 64.1405L54.9037 61.3272C52.583 58.4051 51.1933 54.7154 51.1933 50.6963C51.1933 41.9037 57.8318 34.6627 66.3783 33.681V29.7047C55.6398 30.7029 47.2319 39.7162 47.2319 50.693C47.2319 55.8058 49.0541 60.4937 52.0846 64.1405Z" fill="#49A9B4"/>
<path d="M85.4092 52.673C84.4255 61.202 77.1697 67.827 68.359 67.827C64.3317 67.827 60.6344 66.44 57.7064 64.1241L54.8872 66.9375C58.5448 69.9617 63.239 71.7802 68.359 71.7802C79.3583 71.7802 88.3901 63.3895 89.3904 52.673H85.4092Z" fill="#49A9B4"/>
<path d="M70.3396 29.7079V33.6842C78.2358 34.5901 84.498 40.8395 85.4091 48.7229H89.3903C88.4527 38.6553 80.4278 30.6435 70.3396 29.7079Z" fill="#49A9B4"/>
<path d="M66.3783 78.9518V74.9887C53.8143 73.9807 43.9308 63.4948 43.9308 50.6962C43.9308 44.6774 46.1227 39.1693 49.7473 34.9163L46.9381 32.1161C42.6005 37.0906 39.9695 43.5837 39.9695 50.6962C39.9695 65.6789 51.6257 77.9372 66.3783 78.9518Z" fill="#49A9B4"/>
<path d="M89.78 32.1161L86.9707 34.9163C90.5953 39.1693 92.7873 44.6775 92.7873 50.6962C92.7873 56.715 90.5953 62.2232 86.974 66.4762L89.7832 69.2797C94.1176 64.3019 96.7486 57.8087 96.7486 50.6962C96.7486 43.5837 94.1176 37.0906 89.78 32.1161Z" fill="#49A9B4"/>
<path d="M52.5467 32.123C56.8084 28.5058 62.3278 26.3183 68.3589 26.3183C74.3934 26.3183 79.9095 28.5058 84.1712 32.1197L86.9772 29.3195C81.9925 24.9907 75.486 22.3651 68.3589 22.3651C61.2319 22.3651 54.7254 24.9907 49.7407 29.3195L52.5467 32.123Z" fill="#49A9B4"/>
<path d="M84.1712 69.2732C80.3816 72.4885 75.595 74.5672 70.3396 74.9889V78.952C76.6876 78.5139 82.4613 75.997 86.9772 72.0734L84.1712 69.2732Z" fill="#49A9B4"/>
<path d="M68.359 86.2754C87.3833 86.2754 102.928 71.4047 103.955 52.673H99.9869C98.9635 69.2172 85.1946 82.3221 68.359 82.3221C51.5234 82.3221 37.7545 69.2172 36.7311 52.673H32.7632C33.7898 71.4047 49.3347 86.2754 68.359 86.2754Z" fill="#49A9B4"/>
<path d="M32.7632 48.7198H36.7311C37.7148 32.8279 50.4538 20.115 66.3783 19.1333V15.1735C48.2652 16.1618 33.7535 30.6437 32.7632 48.7198Z" fill="#49A9B4"/>
<path d="M70.3396 15.1735V19.1333C86.2641 20.115 99.0031 32.8279 99.9868 48.7198H103.955C102.964 30.6437 88.4528 16.1618 70.3396 15.1735Z" fill="#49A9B4"/>
<path d="M68.3589 7.86975C44.657 7.86975 25.4446 27.0429 25.4446 50.6963C25.4446 73.6875 43.5974 92.4422 66.3783 93.4767V89.5202C45.786 88.4923 29.4059 71.5034 29.4059 50.6963C29.4059 29.227 46.8456 11.823 68.3589 11.823C89.8722 11.823 107.312 29.227 107.312 50.6963C107.312 71.5034 90.9319 88.4923 70.3396 89.5202V93.4767C93.1205 92.4422 111.273 73.6875 111.273 50.6963C111.273 27.0429 92.0609 7.86975 68.3589 7.86975Z" fill="#49A9B4"/>
<path d="M102.41 87.471L99.6072 84.6741C91.3809 92.2148 80.408 96.817 68.359 96.817C56.31 96.817 45.3404 92.2148 37.1107 84.6741L34.3081 87.471C43.2541 95.7266 55.2173 100.77 68.359 100.77C81.504 100.77 93.4639 95.7266 102.41 87.471Z" fill="#49A9B4"/>
<path d="M31.5087 84.6777L34.3113 81.8809C26.7551 73.6713 22.1435 62.7209 22.1435 50.6965C22.1435 38.6722 26.7551 27.7217 34.3113 19.5122L31.5087 16.7153C23.2394 25.643 18.1821 37.5817 18.1821 50.6965C18.1821 63.8146 23.2394 75.7501 31.5087 84.6777Z" fill="#49A9B4"/>
<path d="M68.359 0.622192C55.2173 0.622192 43.2541 5.66913 34.3081 13.9215L37.1107 16.7184C45.3404 9.18091 56.31 4.57541 68.359 4.57541C93.8831 4.57541 114.574 25.2244 114.574 50.6963C114.574 62.7207 109.963 73.6711 102.407 81.8806L105.209 84.6775C113.482 75.7498 118.536 63.8144 118.536 50.6963C118.536 23.0402 96.0717 0.622192 68.359 0.622192Z" fill="#49A9B4"/>
<path d="M10.9561 48.7199H14.9207C15.9638 20.1611 39.4875 -2.67202 68.3589 -2.67202C82.415 -2.67202 95.2002 2.74059 104.744 11.5892L107.546 8.79232C97.2832 -0.771182 83.5077 -6.62524 68.3589 -6.62524C37.2989 -6.62524 12.0025 17.977 10.9561 48.7199Z" fill="#49A9B4"/>
<path d="M110.349 11.5892L107.546 14.3861C115.994 23.4621 121.315 35.4733 121.797 48.7199H125.762C125.273 34.3829 119.513 21.3833 110.349 11.5892Z" fill="#49A9B4"/>
<path d="M68.359 108.018C99.419 108.018 124.715 83.4158 125.762 52.673H121.797C120.754 81.2317 97.2304 104.065 68.359 104.065C39.4875 104.065 15.9638 81.2317 14.9207 52.673H10.9561C12.0025 83.4158 37.2989 108.018 68.359 108.018Z" fill="#49A9B4"/>
<path d="M66.3783 115.233V111.276C51.1008 110.789 37.2494 104.668 26.8344 94.9297L24.0317 97.7266C35.1664 108.18 50.0048 114.742 66.3783 115.233Z" fill="#49A9B4"/>
<path d="M70.3396 -13.84V-9.88345C102.968 -8.83915 129.099 17.8813 129.099 50.6963C129.099 83.5113 102.968 110.232 70.3396 111.276V115.233C105.156 114.188 133.061 85.6955 133.061 50.6963C133.061 15.6972 105.156 -12.7957 70.3396 -13.84Z" fill="#49A9B4"/>
<path d="M3.65723 50.6963C3.65723 67.8171 10.3354 83.3763 21.2323 94.9329L24.0349 92.136C13.8543 81.2975 7.61855 66.7233 7.61855 50.6963C7.61855 17.8813 33.7501 -8.83915 66.3782 -9.88345V-13.84C31.5615 -12.7957 3.65723 15.6972 3.65723 50.6963Z" fill="#49A9B4"/>
<path d="M68.3588 122.513C87.5184 122.513 104.928 115.038 117.823 102.856L115.02 100.059C102.842 111.526 86.4258 118.56 68.3588 118.56C30.8022 118.56 0.3561 88.1759 0.3561 50.6961C0.3561 32.6662 7.40396 16.2834 18.8951 4.13052L16.0925 1.33362C3.88498 14.2013 -3.60522 31.5757 -3.60522 50.6961C-3.60522 90.3601 28.6135 122.513 68.3588 122.513Z" fill="#49A9B4"/>
<path d="M68.359 -21.1205C49.1994 -21.1205 31.7894 -13.6456 18.8953 -1.46312L21.6979 1.33379C33.8757 -10.1338 50.292 -17.1673 68.359 -17.1673C105.916 -17.1673 136.362 13.2165 136.362 50.6963C136.362 68.7262 129.314 85.109 117.823 97.2619L120.625 100.059C132.833 87.1911 140.323 69.8167 140.323 50.6963C140.323 11.0323 108.104 -21.1205 68.359 -21.1205Z" fill="#49A9B4"/>
<path d="M147.562 52.673H143.601C142.548 93.2429 109.266 125.807 68.359 125.807C27.455 125.807 -5.82999 93.2429 -6.87974 52.673H-10.8411C-9.79131 95.427 25.2664 129.761 68.359 129.761C111.452 129.761 146.509 95.427 147.562 52.673Z" fill="#49A9B4"/>
<path d="M125.762 -3.79541L122.959 -0.998506C135.342 12.0241 143.099 29.4709 143.598 48.7198H147.559C147.061 28.3805 138.864 9.94532 125.762 -3.79541Z" fill="#49A9B4"/>
<path d="M-10.8411 48.7197H-6.87974C-5.82999 8.14981 27.455 -24.4148 68.359 -24.4148C88.4297 -24.4148 106.665 -16.5743 120.16 -3.7922L122.963 -6.5891C108.751 -20.0861 89.5257 -28.368 68.359 -28.368C25.2664 -28.368 -9.79131 5.96895 -10.8411 48.7197Z" fill="#49A9B4"/>
<path d="M5.81962 110.314L8.61896 107.521C-5.49986 92.7388 -14.1686 72.729 -14.1686 50.6964C-14.1686 5.87344 21.7144 -30.5884 66.3784 -31.636V-35.5892C19.5258 -34.5383 -18.1299 3.68929 -18.1299 50.6964C-18.1299 73.8194 -9.01553 94.8176 5.81962 110.314Z" fill="#49A9B4"/>
<path d="M128.099 113.111L125.296 110.317C110.488 124.404 90.4368 133.055 68.359 133.055C46.2812 133.055 26.2303 124.404 11.4215 110.314L8.6189 113.108C24.1473 127.916 45.1885 137.008 68.359 137.008C91.5294 137.008 112.571 127.916 128.099 113.111Z" fill="#49A9B4"/>
<path d="M70.3396 -35.5892V-31.636C115.004 -30.5884 150.887 5.87344 150.887 50.6963C150.887 72.7289 142.218 92.7388 128.099 107.517L130.902 110.311C145.737 94.8176 154.848 73.8194 154.848 50.6963C154.848 3.68928 117.192 -34.5383 70.3396 -35.5892Z" fill="#49A9B4"/>
<path d="M3.4856 -16.8411L6.28494 -14.0442C22.4108 -29.4486 44.2773 -38.9099 68.3589 -38.9099C117.948 -38.9099 158.149 1.20863 158.149 50.6963C158.149 99.5252 119.014 139.225 70.3395 140.276V144.229C121.203 143.175 162.11 101.706 162.11 50.6963C162.11 -0.975521 120.137 -42.8632 68.3589 -42.8632C43.1847 -42.8632 20.3278 -32.9571 3.4856 -16.8411Z" fill="#49A9B4"/>
<path d="M66.3784 144.229V140.276C17.7036 139.225 -21.431 99.5252 -21.431 50.6964C-21.431 26.6641 -11.9502 4.84231 3.48573 -11.2506L0.683094 -14.0442C-15.4659 2.76358 -25.3923 25.5704 -25.3923 50.6964C-25.3923 101.706 15.515 143.179 66.3784 144.229Z" fill="#49A9B4"/>
<path d="M138.369 -16.3766C154.689 0.58605 164.88 23.4653 165.385 48.7198H169.346C168.838 22.3749 158.208 -1.49269 141.168 -19.1702L138.369 -16.3766Z" fill="#49A9B4"/>
<path d="M-32.6284 48.7199H-28.6671C-27.614 -3.85794 15.4225 -46.1574 68.359 -46.1574C94.4476 -46.1574 118.13 -35.8823 135.569 -19.1701L138.372 -21.9637C120.213 -39.3941 95.5403 -50.1106 68.359 -50.1106C13.2338 -50.1106 -31.5721 -6.04209 -32.6284 48.7199Z" fill="#49A9B4"/>
<path d="M165.388 52.673C164.332 105.251 121.299 147.55 68.359 147.55C15.4225 147.55 -27.614 105.251 -28.6671 52.673H-32.6284C-31.5721 107.435 13.2338 151.503 68.359 151.503C123.484 151.503 168.293 107.435 169.35 52.673H165.388Z" fill="#49A9B4"/>
<path d="M70.3396 -57.3319V-53.3787C127.036 -52.3245 172.674 -6.13443 172.674 50.6964C172.674 78.7313 161.566 104.177 143.505 122.892L146.308 125.689C164.811 106.542 176.315 80.586 176.632 51.8856C177.285 -7.52465 129.766 -56.2547 70.3396 -57.3319Z" fill="#49A9B4"/>
<path d="M-9.58656 125.689L-6.78722 122.895C-24.8476 104.177 -35.9558 78.7313 -35.9558 50.6964C-35.9558 -6.13774 9.68198 -52.3245 66.3785 -53.3787V-57.3352C8.03143 -56.3008 -39.2635 -9.10594 -39.9105 49.5071C-40.2373 79.0607 -28.6372 105.969 -9.58656 125.689Z" fill="#49A9B4"/>
<path d="M140.703 125.689C121.949 143.712 96.4514 154.798 68.359 154.798C40.2666 154.798 14.7689 143.712 -3.98471 125.689L-6.78735 128.486C12.3987 146.951 38.4081 158.431 67.164 158.748C96.7782 159.074 123.742 147.498 143.502 128.486L140.703 125.689Z" fill="#49A9B4"/>
<path d="M151.444 -29.4221L148.638 -26.6219C168.297 -6.29909 180.266 21.4492 179.93 51.9252C179.263 112.344 130.492 160.991 70.3396 162.026V165.982C132.661 164.948 183.201 114.557 183.891 51.9681C184.241 20.3818 171.829 -8.37453 151.444 -29.4221Z" fill="#49A9B4"/>
<path d="M66.3784 162.022C5.10987 160.942 -43.8884 110.713 -43.2117 49.4709C-42.8849 19.8778 -31.0141 -6.88877 -11.9238 -26.6252L-14.7265 -29.4221C-34.5232 -8.98398 -46.833 18.7577 -47.173 49.4248C-47.8729 112.867 2.90143 164.902 66.3784 165.979V162.022Z" fill="#49A9B4"/>
<path d="M79.4639 42.4113L76.6216 45.2477C77.6581 46.8092 78.2623 48.6837 78.2623 50.6965C78.2623 56.1553 73.8289 60.5796 68.3589 60.5796C63.569 60.5796 59.5714 57.1831 58.6537 52.6731H54.6362C55.5969 59.3771 61.3738 64.5328 68.3589 64.5328C76.0175 64.5328 82.2236 58.3394 82.2236 50.6965C82.2236 47.59 81.1969 44.7206 79.4639 42.4113Z" fill="#49A9B4"/>
<path d="M74.806 50.7393C74.806 54.3005 71.9142 57.1864 68.3457 57.1864C64.7773 57.1864 61.8855 54.3005 61.8855 50.7393C61.8855 47.1781 64.7773 44.2922 68.3457 44.2922C71.9142 44.2922 74.806 47.1781 74.806 50.7393Z" fill="white"/>
<path d="M68.3591 44.1077C64.7146 44.1077 61.7568 47.0594 61.7568 50.6964C61.7568 54.3366 64.7146 57.285 68.3591 57.285C72.0068 57.285 74.9613 54.3366 74.9613 50.6964C74.9613 47.0594 72.0068 44.1077 68.3591 44.1077ZM68.3458 55.852C67.2136 53.6613 65.4178 51.8724 63.2258 50.7425C65.4211 49.6125 67.2136 47.8204 68.3458 45.6329C69.4781 47.8237 71.2739 49.6125 73.4659 50.7425C71.2739 51.8691 69.4781 53.6613 68.3458 55.852Z" fill="#49A9B4"/>
</g>
<defs>
<clipPath id="clip0">
<rect width="231.077" height="230.588" fill="white" transform="translate(-47.1797 -64.6058)"/>
</clipPath>
</defs>
</svg>

<svg width="184" height="166" viewBox="0 0 184 166" fill="none" xmlns="http://www.w3.org/2000/svg"><g opacity=".05" clip-path="url(#clip0)"><path d="M54.636 48.72h4.018a9.904 9.904 0 019.705-7.907c2.017 0 3.895.603 5.46 1.638l2.842-2.837a13.823 13.823 0 00-8.302-2.754c-6.985 0-12.759 5.156-13.723 11.86z" fill="#49A9B4"/><path d="M52.085 64.14l2.819-2.813a17.03 17.03 0 01-3.71-10.63c0-8.793 6.638-16.034 15.184-17.016v-3.976c-10.738.998-19.146 10.011-19.146 20.988 0 5.113 1.822 9.8 4.853 13.448zM85.41 52.673c-.984 8.529-8.24 15.154-17.051 15.154a17.109 17.109 0 01-10.653-3.703l-2.819 2.814A21.07 21.07 0 0068.36 71.78c11 0 20.031-8.39 21.031-19.107h-3.98zM70.34 29.708v3.976c7.896.906 14.158 7.156 15.07 15.039h3.98c-.937-10.068-8.962-18.08-19.05-19.015z" fill="#49A9B4"/><path d="M66.378 78.952v-3.963C53.814 73.98 43.931 63.495 43.931 50.696a24.246 24.246 0 015.816-15.78l-2.809-2.8c-4.338 4.975-6.969 11.468-6.969 18.58 0 14.983 11.657 27.241 26.41 28.256zM89.78 32.116l-2.81 2.8a24.247 24.247 0 015.817 15.78 24.262 24.262 0 01-5.813 15.78l2.81 2.804c4.334-4.978 6.965-11.471 6.965-18.584 0-7.112-2.631-13.605-6.969-18.58zm-37.233.007a24.355 24.355 0 0115.812-5.805c6.034 0 11.55 2.188 15.812 5.802l2.806-2.8a28.296 28.296 0 00-18.618-6.955A28.295 28.295 0 0049.74 29.32l2.806 2.803zm31.624 37.15A24.35 24.35 0 0170.34 74.99v3.963a28.283 28.283 0 0016.637-6.879l-2.806-2.8z" fill="#49A9B4"/><path d="M68.359 86.275c19.024 0 34.569-14.87 35.596-33.602h-3.968c-1.023 16.544-14.792 29.65-31.628 29.65s-30.604-13.106-31.628-29.65h-3.968C33.79 71.405 49.335 86.275 68.36 86.275zM32.763 48.72h3.968c.984-15.892 13.723-28.605 29.647-29.587v-3.96c-18.113.989-32.624 15.47-33.615 33.547zM70.34 15.174v3.96c15.924.981 28.663 13.694 29.647 29.586h3.968c-.991-18.076-15.502-32.558-33.615-33.547z" fill="#49A9B4"/><path d="M68.359 7.87c-23.702 0-42.914 19.173-42.914 42.826 0 22.992 18.152 41.746 40.933 42.78V89.52c-20.592-1.028-36.972-18.017-36.972-38.824 0-21.469 17.44-38.873 38.953-38.873s38.953 17.404 38.953 38.873c0 20.807-16.38 37.796-36.972 38.824v3.957c22.78-1.035 40.933-19.79 40.933-42.78 0-23.654-19.212-42.827-42.914-42.827z" fill="#49A9B4"/><path d="M102.41 87.471l-2.803-2.797A46.092 46.092 0 0168.36 96.817c-12.049 0-23.019-4.602-31.248-12.143l-2.803 2.797c8.946 8.256 20.91 13.299 34.051 13.299 13.145 0 25.105-5.043 34.051-13.299zm-70.901-2.793l2.802-2.797c-7.556-8.21-12.168-19.16-12.168-31.184 0-12.025 4.612-22.975 12.168-31.185l-2.802-2.797c-8.27 8.928-13.327 20.867-13.327 33.981 0 13.119 5.057 25.054 13.327 33.982zM68.359.622c-13.142 0-25.105 5.047-34.05 13.3l2.802 2.796C45.34 9.181 56.31 4.575 68.359 4.575c25.524 0 46.215 20.65 46.215 46.121 0 12.025-4.611 22.975-12.167 31.185l2.802 2.796c8.273-8.927 13.327-20.863 13.327-33.98C118.536 23.04 96.072.621 68.359.621z" fill="#49A9B4"/><path d="M10.956 48.72h3.965C15.964 20.16 39.487-2.672 68.359-2.672c14.056 0 26.841 5.413 36.385 14.261l2.802-2.797C97.283-.77 83.508-6.625 68.359-6.625c-31.06 0-56.356 24.602-57.403 55.345zm99.393-37.13l-2.803 2.796c8.448 9.076 13.769 21.087 14.251 34.334h3.965c-.489-14.337-6.249-27.337-15.413-37.13zm-41.99 96.428c31.06 0 56.356-24.602 57.403-55.345h-3.965c-1.043 28.559-24.567 51.392-53.438 51.392-28.871 0-52.395-22.833-53.438-51.392h-3.965c1.046 30.743 26.343 55.345 57.403 55.345z" fill="#49A9B4"/><path d="M66.378 115.233v-3.957c-15.277-.487-29.129-6.608-39.544-16.346l-2.802 2.797c11.134 10.453 25.973 17.015 42.346 17.506zM70.34-13.84v3.957c32.628 1.044 58.759 27.764 58.759 60.58 0 32.814-26.131 59.535-58.76 60.579v3.957c34.817-1.045 62.722-29.538 62.722-64.537 0-34.999-27.905-63.492-62.721-64.536zM3.657 50.696c0 17.121 6.678 32.68 17.575 44.237l2.803-2.797C13.855 81.298 7.619 66.723 7.619 50.696c0-32.815 26.131-59.535 58.76-60.58v-3.956C31.56-12.796 3.656 15.697 3.656 50.696z" fill="#49A9B4"/><path d="M68.359 122.513c19.16 0 36.569-7.475 49.464-19.657l-2.803-2.797c-12.178 11.467-28.594 18.501-46.661 18.501C30.802 118.56.356 88.176.356 50.696c0-18.03 7.048-34.413 18.54-46.565l-2.803-2.797C3.885 14.2-3.605 31.576-3.605 50.696c0 39.664 32.218 71.817 71.964 71.817zm0-143.633c-19.16 0-36.57 7.474-49.464 19.657l2.803 2.797c12.178-11.468 28.594-18.501 46.661-18.501 37.557 0 68.003 30.384 68.003 67.863 0 18.03-7.048 34.413-18.539 46.566l2.802 2.797c12.208-12.868 19.698-30.242 19.698-49.363 0-39.664-32.219-71.816-71.964-71.816z" fill="#49A9B4"/><path d="M147.562 52.673h-3.961c-1.053 40.57-34.335 73.134-75.242 73.134-40.904 0-74.189-32.564-75.239-73.134h-3.961c1.05 42.754 36.107 77.088 79.2 77.088s78.15-34.334 79.203-77.088zm-21.8-56.468L122.959-1c12.383 13.023 20.14 30.47 20.639 49.719h3.961c-.498-20.34-8.695-38.775-21.797-52.515zM-10.841 48.72h3.961c1.05-40.57 34.335-73.135 75.24-73.135 20.07 0 38.306 7.84 51.801 20.623l2.803-2.797C108.752-20.086 89.527-28.368 68.36-28.368c-43.093 0-78.15 34.337-79.2 77.088z" fill="#49A9B4"/><path d="M5.82 110.314l2.799-2.793C-5.5 92.739-14.169 72.729-14.169 50.696c0-44.823 35.883-81.284 80.547-82.332v-3.953C19.526-34.54-18.13 3.689-18.13 50.696c0 23.123 9.114 44.122 23.95 59.618zm122.279 2.797l-2.803-2.794c-14.808 14.087-34.86 22.738-56.937 22.738-22.078 0-42.129-8.651-56.937-22.741l-2.803 2.794c15.528 14.808 36.57 23.9 59.74 23.9s44.212-9.092 59.74-23.897zM70.34-35.59v3.954c44.664 1.048 80.547 37.51 80.547 82.332 0 22.033-8.669 42.043-22.788 56.821l2.803 2.794c14.835-15.493 23.946-36.492 23.946-59.615 0-47.007-37.656-85.234-84.508-86.285z" fill="#49A9B4"/><path d="M3.486-16.841l2.799 2.797C22.41-29.45 44.277-38.91 68.359-38.91c49.589 0 89.79 40.119 89.79 89.606 0 48.83-39.135 88.529-87.81 89.58v3.953c50.864-1.054 91.771-42.523 91.771-93.533 0-51.672-41.973-93.56-93.751-93.56-25.174 0-48.031 9.907-64.873 26.023zm62.892 161.07v-3.953c-48.674-1.051-87.809-40.75-87.809-89.58 0-24.032 9.48-45.854 24.917-61.947L.683-14.044C-15.466 2.764-25.392 25.57-25.392 50.696c0 51.01 40.907 92.483 91.77 93.533z" fill="#49A9B4"/><path d="M138.369-16.377C154.689.586 164.88 23.465 165.385 48.72h3.961c-.508-26.345-11.138-50.213-28.178-67.89l-2.799 2.793zM-32.628 48.72h3.96c1.054-52.578 44.09-94.877 97.027-94.877 26.089 0 49.771 10.275 67.21 26.987l2.803-2.794C120.213-39.394 95.54-50.11 68.359-50.11c-55.125 0-99.931 44.069-100.987 98.83zm198.016 3.953c-1.056 52.578-44.089 94.877-97.029 94.877-52.936 0-95.973-42.299-97.026-94.877h-3.961c1.056 54.762 45.862 98.83 100.987 98.83 55.125 0 99.934-44.068 100.991-98.83h-3.962z" fill="#49A9B4"/><path d="M70.34-57.332v3.953c56.696 1.054 102.334 47.245 102.334 104.075 0 28.035-11.108 53.481-29.169 72.196l2.803 2.797c18.503-19.147 30.007-45.103 30.324-73.803.653-59.41-46.866-108.14-106.292-109.218zM-9.587 125.689l2.8-2.794c-18.06-18.718-29.169-44.164-29.169-72.199 0-56.834 45.638-103.02 102.335-104.075v-3.956C8.03-56.301-39.263-9.105-39.912 49.507c-.326 29.554 11.274 56.462 30.324 76.182zm150.29 0c-18.754 18.023-44.252 29.109-72.344 29.109-28.092 0-53.59-11.086-72.344-29.109l-2.802 2.797c19.186 18.465 45.195 29.945 73.951 30.262 29.614.326 56.578-11.25 76.338-30.262l-2.799-2.797z" fill="#49A9B4"/><path d="M151.444-29.422l-2.806 2.8c19.659 20.323 31.628 48.071 31.292 78.547-.667 60.419-49.438 109.066-109.59 110.101v3.956c62.32-1.034 112.86-51.425 113.55-114.014.35-31.586-12.062-60.343-32.447-81.39zM66.378 162.022C5.11 160.942-43.888 110.713-43.212 49.471c.327-29.593 12.198-56.36 31.288-76.096l-2.803-2.797c-19.796 20.438-32.106 48.18-32.446 78.847-.7 63.442 50.074 115.477 113.551 116.554v-3.957zM79.464 42.411l-2.842 2.837a9.823 9.823 0 011.64 5.449c0 5.458-4.433 9.883-9.903 9.883a9.904 9.904 0 01-9.705-7.907h-4.018c.96 6.704 6.738 11.86 13.723 11.86 7.659 0 13.865-6.194 13.865-13.837a13.76 13.76 0 00-2.76-8.285z" fill="#49A9B4"/><path d="M74.806 50.74c0 3.56-2.892 6.446-6.46 6.446-3.569 0-6.46-2.886-6.46-6.447 0-3.56 2.891-6.447 6.46-6.447 3.568 0 6.46 2.886 6.46 6.447z" fill="#fff"/><path d="M68.36 44.108c-3.645 0-6.603 2.951-6.603 6.588 0 3.64 2.958 6.589 6.602 6.589 3.648 0 6.602-2.948 6.602-6.589 0-3.637-2.954-6.588-6.602-6.588zm-.014 11.744a11.912 11.912 0 00-5.12-5.11 11.912 11.912 0 005.12-5.11 11.913 11.913 0 005.12 5.11 11.895 11.895 0 00-5.12 5.11z" fill="#49A9B4"/></g><defs><clipPath id="clip0"><path fill="#fff" transform="translate(-47.18 -64.606)" d="M0 0h231.077v230.588H0z"/></clipPath></defs></svg>
